X: 72
T: POLKA: Ballydesmond No. 2
C: C: Trad.; S: Various
C: Set Leaders: Andrey, Olya, Vova, Anton
Z: Anton Zille ed., Oleg Naumov arr.; ceolachan at The Session
N: https://thesession.org/members/26966/sets/96720
R: Polka
M: 2/4
L: 1/8
Q: 1/4=140
K: Ador
|:"C"c2 "G"Bc/B/|"Am"AB/A/ "Em"G>A|"G"Bd ed|"Em"g2 g>d|
"Am"ea g/a/g/e/|"G"dB GA/B/|"C"ce "Em"dB|1 "Am"A2 AB:|2 "Am"A2 A>d||
|:"Am"ea ag/e/|"G"dg ge/d/|"Am"ea ab|"Em"g2 ed|
"Am"ea g/a/g/e/|"G"dB GA/B/|"Am"ce "Em"dB|1 "Am"A2 A>d:|2 "Am"A2 AB||

